X: 50
T: Figaro
B:[[Notböcker/Melodier til gamle danske Almuedanse for Violin solo]]
O:Danmark
Z:Søren Bak Vestergaard
M: 3/8
L: 1/8
K: F
c2 c|(A/B/)A/G/F|EGC|FAC|c2 c|(A/B/)A/G/F|EGC|F2 z:|
|:[K: C]c2 e|d2 f|eg/e/c|=Bd/B/G|ggg|!4!c'ge|gfd|c2 z:|\
|:[K: F]cc/=B/c/d/|cAF|cc/=B/c/d/|cAF|AA_B|c2 !upbow!f|ABG|F2 z:|

